X: 3
T: Drowsy Maggie
R: reel
M: 4/4
L: 1/8
K: Edor
d2fd c2ec|defg faaf|d2fd c2ec|BABc dAFA|d2fd c2ec|defg faaf|bgaf gefd|BABc dAFD||


Tune 27	Setting 12408

